svg/fluentui-system-icons/ic_fluent_app_folder_32_regular.svg

<svg width="32" height="32" viewBox="0 0 32 32" fill="none" xmlns="http://www.w3.org/2000/svg">
<path d="M7 9.5C7 8.11929 8.11929 7 9.5 7H12.5C13.8807 7 15 8.11929 15 9.5V12.5C15 13.8807 13.8807 15 12.5 15H9.5C8.11929 15 7 13.8807 7 12.5V9.5ZM9.5 9C9.22386 9 9 9.22386 9 9.5V12.5C9 12.7761 9.22386 13 9.5 13H12.5C12.7761 13 13 12.7761 13 12.5V9.5C13 9.22386 12.7761 9 12.5 9H9.5ZM9.5 17C8.11929 17 7 18.1193 7 19.5V22.5C7 23.8807 8.11929 25 9.5 25H12.5C13.8807 25 15 23.8807 15 22.5V19.5C15 18.1193 13.8807 17 12.5 17H9.5ZM9 19.5C9 19.2239 9.22386 19 9.5 19H12.5C12.7761 19 13 19.2239 13 19.5V22.5C13 22.7761 12.7761 23 12.5 23H9.5C9.22386 23 9 22.7761 9 22.5V19.5ZM17 9.5C17 8.11929 18.1193 7 19.5 7H22.5C23.8807 7 25 8.11929 25 9.5V12.5C25 13.8807 23.8807 15 22.5 15H19.5C18.1193 15 17 13.8807 17 12.5V9.5ZM19.5 9C19.2239 9 19 9.22386 19 9.5V12.5C19 12.7761 19.2239 13 19.5 13H22.5C22.7761 13 23 12.7761 23 12.5V9.5C23 9.22386 22.7761 9 22.5 9H19.5ZM19.5 17C18.1193 17 17 18.1193 17 19.5V22.5C17 23.8807 18.1193 25 19.5 25H22.5C23.8807 25 25 23.8807 25 22.5V19.5C25 18.1193 23.8807 17 22.5 17H19.5ZM19 19.5C19 19.2239 19.2239 19 19.5 19H22.5C22.7761 19 23 19.2239 23 19.5V22.5C23 22.7761 22.7761 23 22.5 23H19.5C19.2239 23 19 22.7761 19 22.5V19.5ZM3 7.5C3 5.01472 5.01472 3 7.5 3H24.5C26.9853 3 29 5.01472 29 7.5V24.5C29 26.9853 26.9853 29 24.5 29H7.5C5.01472 29 3 26.9853 3 24.5V7.5ZM7.5 5C6.11929 5 5 6.11929 5 7.5V24.5C5 25.8807 6.11929 27 7.5 27H24.5C25.8807 27 27 25.8807 27 24.5V7.5C27 6.11929 25.8807 5 24.5 5H7.5Z" fill="#212121"/>
</svg>

<svg xmlns="http://www.w3.org/2000/svg" width="32" height="32"><path d="M7 9.5A2.5 2.5 0 0 1 9.5 7h3A2.5 2.5 0 0 1 15 9.5v3a2.5 2.5 0 0 1-2.5 2.5h-3A2.5 2.5 0 0 1 7 12.5v-3ZM9.5 9a.5.5 0 0 0-.5.5v3a.5.5 0 0 0 .5.5h3a.5.5 0 0 0 .5-.5v-3a.5.5 0 0 0-.5-.5h-3Zm0 8A2.5 2.5 0 0 0 7 19.5v3A2.5 2.5 0 0 0 9.5 25h3a2.5 2.5 0 0 0 2.5-2.5v-3a2.5 2.5 0 0 0-2.5-2.5h-3ZM9 19.5a.5.5 0 0 1 .5-.5h3a.5.5 0 0 1 .5.5v3a.5.5 0 0 1-.5.5h-3a.5.5 0 0 1-.5-.5v-3Zm8-10A2.5 2.5 0 0 1 19.5 7h3A2.5 2.5 0 0 1 25 9.5v3a2.5 2.5 0 0 1-2.5 2.5h-3a2.5 2.5 0 0 1-2.5-2.5v-3Zm2.5-.5a.5.5 0 0 0-.5.5v3a.5.5 0 0 0 .5.5h3a.5.5 0 0 0 .5-.5v-3a.5.5 0 0 0-.5-.5h-3Zm0 8a2.5 2.5 0 0 0-2.5 2.5v3a2.5 2.5 0 0 0 2.5 2.5h3a2.5 2.5 0 0 0 2.5-2.5v-3a2.5 2.5 0 0 0-2.5-2.5h-3Zm-.5 2.5a.5.5 0 0 1 .5-.5h3a.5.5 0 0 1 .5.5v3a.5.5 0 0 1-.5.5h-3a.5.5 0 0 1-.5-.5v-3ZM3 7.5A4.5 4.5 0 0 1 7.5 3h17A4.5 4.5 0 0 1 29 7.5v17a4.5 4.5 0 0 1-4.5 4.5h-17A4.5 4.5 0 0 1 3 24.5v-17ZM7.5 5A2.5 2.5 0 0 0 5 7.5v17A2.5 2.5 0 0 0 7.5 27h17a2.5 2.5 0 0 0 2.5-2.5v-17A2.5 2.5 0 0 0 24.5 5h-17Z"/></svg>
